src/assets/fitze-step-tracker.svg

<svg width="22" height="32" viewBox="0 0 22 32" fill="none" xmlns="http://www.w3.org/2000/svg">
<path d="M12.4601 23.3628C13.1052 23.3628 13.6282 23.8858 13.6282 24.531C13.6282 25.1761 13.1052 25.6991 12.4601 25.6991H9.34504C8.6999 25.6991 8.17691 25.1761 8.17691 24.531C8.17691 23.8858 8.6999 23.3628 9.34504 23.3628H12.4601Z" fill="#FE572A"/>
<path d="M19.4688 8.56637V5.84071C19.4688 3.90527 17.8999 2.33628 15.9644 2.33628L5.84065 2.33628C3.90523 2.33628 2.33626 3.90527 2.33626 5.84071L2.33626 25.3097C2.33626 27.2452 3.90523 28.8142 5.84065 28.8142H15.9644C17.8999 28.8142 19.4688 27.2452 19.4688 25.3097V8.56637H21.8051V25.3097C21.8051 28.5355 19.1901 31.1505 15.9644 31.1505H5.84065C2.61495 31.1505 0 28.5355 0 25.3097L0 5.84071C0 2.61497 2.61495 0 5.84065 0L15.9644 0C19.1901 0 21.8051 2.61497 21.8051 5.84071V8.56637H19.4688Z" fill="#FE572A"/>
</svg>

<svg xmlns="http://www.w3.org/2000/svg" width="22" height="32" fill="none" viewBox="0 0 22 32"><path fill="#fe572a" d="M12.46 23.363a1.168 1.168 0 0 1 0 2.336H9.345a1.168 1.168 0 0 1 0-2.336z"/><path fill="#fe572a" d="M19.469 8.566V5.841a3.504 3.504 0 0 0-3.505-3.505H5.841a3.504 3.504 0 0 0-3.505 3.505V25.31a3.504 3.504 0 0 0 3.505 3.504h10.123a3.504 3.504 0 0 0 3.505-3.504zh2.336V25.31a5.84 5.84 0 0 1-5.84 5.84H5.84A5.84 5.84 0 0 1 0 25.31V5.84A5.84 5.84 0 0 1 5.84 0h10.124a5.84 5.84 0 0 1 5.841 5.84v2.726z"/></svg>
